X: 0
T: In natali Domini
Z: 14th Century German Melody
Z: Copyright © 2004 by Douglas D. Anderson
Z: Released To The Public Domain
L: 1/4
M: 3/2
Q: 1/4=600
V: P1 name="Staff"
%%MIDI program 1 19
K: D
[V: P1]  E4 G2 | F4 E2 | D4 E2 | F2z2 | F4 G2 | A4 B2 | G2 F4 | E6 | F4 G2 | A4 G2 | F2 E4 | D4z2 | A4 B2 | d4 c2 | B4 A2 | B6 | B4 B2 | A4 A2 | B4 G2 | F4z2 | B4 B2 | (A2 B2) =c2 | (B2 A2) G2 | F6 | F4 G2 | A4 B2 | G2 F4 | E6|]
w: On the birth- day of the Lord An- gel Quires with one ac- cord Sing In dul- ci ju- bi lo, Glo- ri a u- ni De- o! God of Ma- ry maid is born. Christ is Ma-_ ry's Son_ to- morn: Mo- ther she, yet maid- en aye.

